X:1
T:Russia, LM
T:Adapted from Dmitri S. Bortniansky , 1825
T:Russia, LM
T:Public Domain
C:Adapted from Dmitri S. Bortniansky , 1825
Z:Public Domain
%%score ( 1 2 ) ( 3 4 )
L:1/8
M:3/4
K:C
V:1 treble 
V:2 treble 
V:3 bass 
V:4 bass 
V:1
 [EG]2 | ([EG]2 [CE]2) [DF]2 | [EG]4 [Ec]2 | ([Fd]2 [Ec]2) [DB]2 | [Ec]4 [EG]2 | (A2 c2) [CA]2 | %6
 (C2 B,2) [CE]2 | (G2 F2) [CE]2 | [B,D]4 [DG]2 | [Fd]4 [FB]2 | [Ec]4 [DG]2 | ([Ee]2 [Fd]2) (GF) | %12
 ([Ec]4 [DB]2) | [Cc]2 (DE) [FA]2 | [EG]4 [CE]2 | (G2 F2) [B,D]2 | C4 |] %17
V:2
 x2 | x6 | x6 | x6 | x6 | F4 x2 | G4 x2 | D4 x2 | x6 | x6 | x6 | x4 c2 | x6 | x2 B2 x2 | x6 | %15
 C4 x2 | C4 |] %17
V:3
 [C,C]2 | (C2 G,2) A,B, | [C,C]4 [C,G,]2 | (B,2 C2) [G,,D]2 | [C,C]4 [C,C]2 | (C2 A,2) F,2 | %6
 (E,2 D,2) [C,G,]2 | [B,,G,]4 [C,G,]2 | [G,,G,]4 [G,B,]2 | [G,B,]4 [G,D]2 | [C,C]4 [B,,D]2 | %11
 ([C,G,]2 [D,B,]2) ([E,C][F,A,]) | G,6 | [C,E,]2 (F,G,) (A,B,) | [C,C]4 [C,_B,]2 | %15
 [F,,A,]4 (G,F,) | [C,E,]4 |] %17
V:4
 x2 | C,4 C,2 | x6 | G,,4 x2 | x6 | F,4 F,2 | G,4 x2 | x6 | x6 | x6 | x6 | x6 | G,6 | x2 C,2 C,2 | %14
 x6 | x4 G,,2 | x4 |] %17

